X: 138
T: Wu ling hua The two clouds
L: 1/8
M: 2/4
K: C
EE2G [I:setbarnb 1]| 
A2c A | 
A GE2 | 
G4 | 
GE2G | 
A3c | 
A GE2 | 
D4 | 
D3E | 
G2A2 | 
A2A,2 | 
C3D | 
CA,2C | 
D EA2 | 
E> DC2 | 
A,4 |]

@@@ Tune index: 8806
